X: 29205
T: New Custom House, The
R: reel
M: 4/4
K: Dmixolydian
dB|:ADdD (3EFG AB|cAGE CEGB|ADdD (3EFG AB|c3 ^c dcAG|
ADdD (3EFG AB|cAGE CEGB|ADdD (3EFG AB|cAGE EDD2:|
|:Addd Adfd|edcd efg2|Ad (3dcd Adfd|edcd eddB|
Ad (3dcd Adfd|edcd efge|faag efge|1 (3fga ge dcdB:|2 (3fga ge d2B||

